flaticon/essential/menu-3.svg

<svg xmlns="http://www.w3.org/2000/svg" width="32" height="32" viewBox="0 0 24 24">
    <path d="M3.722656 4.964844L20.277344 4.964844 20.277344 5.792969 3.722656 5.792969zM3.722656 11.585938L20.277344 11.585938 20.277344 12.414062 3.722656 12.414062zM3.722656 18.207031L20.277344 18.207031 20.277344 19.035156 3.722656 19.035156zM3.722656 18.207031"/>
    <path d="M 0 0 L 0 24 L 24 24 L 24 0 Z M 23.171875 23.171875 L 0.828125 23.171875 L 0.828125 0.828125 L 23.171875 0.828125 Z M 23.171875 23.171875"/>
</svg>

<svg xmlns="http://www.w3.org/2000/svg" width="32" height="32" viewBox="0 0 24 24">
    <path d="M3.723 4.965h16.554v.828H3.723zm0 0M3.723 11.586h16.554v.828H3.723zm0 0M3.723 18.207h16.554v.828H3.723zm0 0"/>
    <path d="M0 0v24h24V0zm23.172 23.172H.828V.828h22.344zm0 0"/>
</svg>
